img/svg/partners/logo/logoipsum6.svg

<svg width="102" height="102" viewBox="0 0 102 102" fill="none" xmlns="http://www.w3.org/2000/svg">
<circle cx="51" cy="51" r="51" fill="#252532" fill-opacity="0.8"/>
<circle cx="51" cy="51" r="50.5" stroke="url(#paint0_linear_43_1735)" stroke-opacity="0.3"/>
<path d="M31.6473 47.6816C31.8436 47.6816 31.9091 47.7525 31.9091 47.9435V52.2635H34.1291C34.32 52.2635 34.3909 52.3344 34.3909 52.5253V52.9071C34.3909 53.098 34.32 53.1689 34.1291 53.1689H31.2054C31.0145 53.1689 30.9382 53.098 30.9382 52.9071V47.9435C30.9382 47.7525 31.0145 47.6816 31.2054 47.6816H31.6473Z" fill="#D1D1D1"/>
<path d="M36.3273 49.5856C36.3273 48.3256 37.1236 47.5674 38.5091 47.5674C39.8945 47.5674 40.6909 48.3256 40.6909 49.5856V51.2656C40.6909 52.5256 39.8891 53.2837 38.5091 53.2837C37.1291 53.2837 36.3273 52.5256 36.3273 51.2656V49.5856ZM39.7745 49.5856C39.7745 48.8765 39.3327 48.4947 38.5364 48.4947C37.74 48.4947 37.3036 48.8819 37.3036 49.5856V51.2765C37.3036 51.991 37.74 52.3674 38.5364 52.3674C39.3327 52.3674 39.7745 51.9747 39.7745 51.2765V49.5856Z" fill="#D1D1D1"/>
<path d="M47.1873 50.1641C47.4 50.1641 47.4491 50.235 47.4491 50.4259V51.4623C47.4549 51.7064 47.406 51.9487 47.3059 52.1714C47.2058 52.3942 47.0572 52.5917 46.8709 52.7495C46.4082 53.118 45.8248 53.3008 45.2346 53.2623C43.8218 53.2623 43.0527 52.5041 43.0527 51.2441V49.5532C43.0527 48.3095 43.8491 47.5459 45.2346 47.5459C46.3255 47.5459 47.0346 47.9768 47.3346 48.8386C47.3514 48.871 47.3604 48.9069 47.3608 48.9433C47.3613 48.9798 47.3533 49.0159 47.3374 49.0487C47.3216 49.0815 47.2982 49.1102 47.2693 49.1325C47.2404 49.1547 47.2067 49.1699 47.1709 49.1768L46.7455 49.3241C46.56 49.3895 46.4836 49.3514 46.4182 49.1604C46.3278 48.9275 46.1624 48.7312 45.948 48.6028C45.7336 48.4744 45.4826 48.4211 45.2346 48.4514C44.4327 48.4514 43.9964 48.8386 43.9964 49.5423V51.2768C43.9964 51.9914 44.4382 52.3677 45.2346 52.3677C46.0309 52.3677 46.5218 52.0023 46.5218 51.4677V51.0641H45.3382C45.1418 51.0641 45.0709 50.9877 45.0709 50.7968V50.4259C45.0709 50.235 45.1418 50.1641 45.3382 50.1641H47.1873Z" fill="#D1D1D1"/>
<path d="M49.7018 49.5856C49.7018 48.3256 50.4982 47.5674 51.8837 47.5674C53.2691 47.5674 54.0655 48.3256 54.0655 49.5856V51.2656C54.0655 52.5256 53.2637 53.2837 51.8837 53.2837C50.5037 53.2837 49.7018 52.5256 49.7018 51.2656V49.5856ZM53.1437 49.5856C53.1437 48.8765 52.7018 48.4947 51.9109 48.4947C51.12 48.4947 50.6728 48.8819 50.6728 49.5856V51.2765C50.6728 51.991 51.1146 52.3674 51.9109 52.3674C52.7073 52.3674 53.1437 51.9747 53.1437 51.2765V49.5856Z" fill="#D1D1D1"/>
<path d="M56.6345 47.8398C56.6345 47.7198 56.6727 47.6816 56.7927 47.6816H57.0436C57.1636 47.6816 57.1909 47.7198 57.1909 47.8398V53.0107C57.1909 53.1307 57.1909 53.1689 57.0436 53.1689H56.7927C56.6727 53.1689 56.6345 53.1307 56.6345 53.0107V47.8398Z" fill="#D1D1D1"/>
<path d="M62.16 47.6816C62.6143 47.6816 63.0499 47.8621 63.3711 48.1833C63.6923 48.5045 63.8727 48.9401 63.8727 49.3944C63.8727 49.8486 63.6923 50.2843 63.3711 50.6054C63.0499 50.9267 62.6143 51.1071 62.16 51.1071H60.5236V53.0107C60.5236 53.1307 60.4964 53.1689 60.3818 53.1689H60.1255C60.0109 53.1689 59.9673 53.1307 59.9673 53.0107V47.8398C59.9673 47.7198 60.0109 47.6816 60.1255 47.6816H62.16ZM62.1109 50.5671C62.2671 50.5671 62.4217 50.5363 62.566 50.4766C62.7102 50.4168 62.8413 50.3292 62.9517 50.2188C63.0621 50.1084 63.1497 49.9773 63.2095 49.8331C63.2692 49.6888 63.3 49.5342 63.3 49.378C63.3 49.2218 63.2692 49.0672 63.2095 48.9229C63.1497 48.7787 63.0621 48.6476 62.9517 48.5372C62.8413 48.4268 62.7102 48.3392 62.566 48.2794C62.4217 48.2197 62.2671 48.1889 62.1109 48.1889H60.4746V50.5671H62.1109Z" fill="#D1D1D1"/>
<path d="M68.1327 47.5724C68.5539 47.526 68.9787 47.6166 69.3443 47.8308C69.7096 48.045 69.9965 48.3714 70.1618 48.7615C70.2055 48.8488 70.1618 48.9197 70.0745 48.9633L69.8345 49.0724C69.7364 49.1106 69.6982 49.1052 69.6382 49.0015C69.5146 48.712 69.3021 48.4693 69.0315 48.3085C68.7609 48.1477 68.4461 48.0771 68.1327 48.107C67.2109 48.107 66.7091 48.4724 66.7091 49.127C66.7038 49.327 66.7709 49.5223 66.8983 49.6766C67.0256 49.831 67.2044 49.9341 67.4018 49.967C67.6952 50.0626 67.9994 50.1213 68.3073 50.1415C68.68 50.1614 69.0477 50.2368 69.3982 50.3652C69.6671 50.4502 69.8984 50.6251 70.0533 50.8605C70.2082 51.0959 70.2775 51.3775 70.2491 51.6579C70.2491 52.6779 69.5073 53.2942 68.1436 53.2942C67.6964 53.3454 67.2451 53.2418 66.8649 53.0006C66.4848 52.7594 66.1988 52.3952 66.0545 51.9688C66.0449 51.9494 66.0397 51.928 66.0393 51.9063C66.0388 51.8846 66.0433 51.8631 66.0521 51.8433C66.0609 51.8235 66.0741 51.8059 66.0905 51.7918C66.107 51.7776 66.1263 51.7673 66.1473 51.7615L66.3873 51.6742C66.4061 51.6665 66.4265 51.6628 66.4469 51.6633C66.4673 51.6639 66.4874 51.6687 66.5059 51.6774C66.5243 51.6861 66.5408 51.6986 66.5541 51.714C66.5675 51.7294 66.5776 51.7474 66.5836 51.767C66.7057 52.0751 66.9226 52.3364 67.2031 52.5129C67.4836 52.6894 67.813 52.7721 68.1436 52.7488C69.1745 52.7488 69.6818 52.3888 69.6818 51.6579C69.6916 51.4658 69.6327 51.2764 69.5157 51.1236C69.3988 50.9708 69.2315 50.8644 69.0436 50.8233C68.7614 50.7392 68.4704 50.6879 68.1764 50.6706L67.5873 50.5942C67.4029 50.5551 67.2208 50.5059 67.0418 50.447C66.865 50.3936 66.7001 50.3065 66.5564 50.1906C66.4117 50.0596 66.2976 49.8984 66.2222 49.7183C66.1468 49.5382 66.1119 49.3438 66.12 49.1488C66.1582 48.1942 66.8727 47.5724 68.1327 47.5724Z" fill="#D1D1D1"/>
<path d="M73.1891 51.3035C73.212 51.6892 73.3816 52.0515 73.6631 52.3165C73.9445 52.5814 74.3165 52.7289 74.7027 52.7289C75.0889 52.7289 75.4609 52.5814 75.7423 52.3165C76.0238 52.0515 76.1929 51.6892 76.2164 51.3035V47.8398C76.2164 47.7198 76.2545 47.6816 76.3745 47.6816H76.6254C76.7454 47.6816 76.7836 47.7198 76.7836 47.8398V51.298C76.7836 52.5362 76.0527 53.2835 74.7054 53.2835C73.3582 53.2835 72.6273 52.5362 72.6273 51.298V47.8398C72.6273 47.7198 72.6654 47.6816 72.78 47.6816H73.0363C73.1509 47.6816 73.1891 47.7198 73.1891 47.8398V51.3035Z" fill="#D1D1D1"/>
<path d="M84.3109 47.6816C84.4309 47.6816 84.4691 47.7198 84.4691 47.8398V53.0107C84.4691 53.1307 84.4309 53.1689 84.3109 53.1689H84.0818C83.9673 53.1689 83.9291 53.1307 83.9291 53.0107V49.8634C83.9291 49.4055 83.9602 48.9481 84.0218 48.4943H83.9891C83.8189 48.9092 83.6198 49.312 83.3946 49.6998L82.2218 51.767C82.2077 51.8029 82.1826 51.8336 82.1504 51.855C82.1182 51.8764 82.0806 51.8876 82.0418 51.887H81.8891C81.8498 51.8873 81.8117 51.876 81.7784 51.8547C81.7457 51.8334 81.7195 51.8029 81.7037 51.767L80.5146 49.678C80.3035 49.2958 80.1213 48.8983 79.9691 48.4889H79.9364C79.992 48.9468 80.0215 49.4076 80.0237 49.8689V53.0107C80.0237 53.1307 79.9855 53.1689 79.8655 53.1689H79.6528C79.5328 53.1689 79.4946 53.1307 79.4946 53.0107V47.8398C79.4946 47.7198 79.5328 47.6816 79.6528 47.6816H79.8491C79.8938 47.6774 79.9391 47.6872 79.9778 47.7097C80.0171 47.7322 80.0482 47.7662 80.0673 47.807L81.9764 51.1998L83.8746 47.8398C83.9346 47.7252 83.9673 47.7089 84.0873 47.7089L84.3109 47.6816Z" fill="#D1D1D1"/>
<path d="M21.9436 52.3404V56.284C21.9436 56.4352 21.8836 56.5802 21.7767 56.687C21.6698 56.7939 21.5248 56.854 21.3736 56.854C21.2225 56.854 21.0775 56.7939 20.9706 56.687C20.8637 56.5802 20.8036 56.4352 20.8036 56.284V52.3458C20.9624 52.4617 21.1526 52.5264 21.3491 52.5313C21.5632 52.5374 21.7731 52.47 21.9436 52.3404ZM26.7982 51.2004C26.6535 51.2004 26.5148 51.2578 26.4125 51.3601C26.3102 51.4624 26.2527 51.6012 26.2527 51.7458V52.4331C26.2527 52.5843 26.3128 52.7293 26.4197 52.8361C26.5266 52.943 26.6715 53.0031 26.8227 53.0031C26.9739 53.0031 27.1189 52.943 27.2258 52.8361C27.3327 52.7293 27.3927 52.5843 27.3927 52.4331V51.7731C27.397 51.6949 27.3843 51.6166 27.3556 51.5438C27.327 51.4709 27.2829 51.405 27.2265 51.3507C27.1701 51.2964 27.1026 51.2548 27.0288 51.2288C26.9548 51.2029 26.8762 51.1932 26.7982 51.2004ZM19.5655 53.8349C19.3692 53.829 19.1792 53.7644 19.02 53.6494V57.604C19.02 57.7559 19.0803 57.9016 19.1878 58.009C19.2952 58.1164 19.4408 58.1767 19.5927 58.1767C19.7446 58.1767 19.8903 58.1164 19.9977 58.009C20.1051 57.9016 20.1655 57.7559 20.1655 57.604V53.6767C19.9873 53.7919 19.7772 53.8473 19.5655 53.8349ZM25.02 50.0167C24.9461 50.013 24.8722 50.0244 24.8029 50.0502C24.7335 50.0759 24.6702 50.1155 24.6165 50.1665C24.563 50.2176 24.5204 50.2789 24.4912 50.3469C24.4622 50.415 24.4472 50.4882 24.4473 50.5622V53.6004C24.4473 53.7523 24.5076 53.898 24.615 54.0054C24.7225 54.1128 24.8681 54.1731 25.02 54.1731C25.1719 54.1731 25.3176 54.1128 25.425 54.0054C25.5324 53.898 25.5927 53.7523 25.5927 53.6004V50.6004C25.5971 50.5216 25.5843 50.4429 25.5553 50.3696C25.5263 50.2963 25.4818 50.2302 25.4247 50.1757C25.3677 50.1213 25.2996 50.0798 25.225 50.0543C25.1504 50.0287 25.0712 50.0196 24.9927 50.0276L25.02 50.0167ZM23.2091 51.184C23.0036 51.1826 22.8037 51.1178 22.6364 50.9985V54.964C22.6364 55.1159 22.6967 55.2616 22.8041 55.369C22.9116 55.4764 23.0572 55.5367 23.2091 55.5367C23.361 55.5367 23.5066 55.4764 23.6141 55.369C23.7215 55.2616 23.7818 55.1159 23.7818 54.964V51.004C23.6088 51.1329 23.3976 51.2001 23.1818 51.1949L23.2091 51.184ZM18.3273 54.2222V43.144C18.3258 43.009 18.2712 42.8799 18.1752 42.785C18.0792 42.69 17.9496 42.6367 17.8146 42.6367H17.6946C17.5595 42.6367 17.4299 42.69 17.3339 42.785C17.2379 42.8799 17.1833 43.009 17.1818 43.144V54.2222C17.1818 54.3582 17.2358 54.4886 17.332 54.5847C17.4282 54.6809 17.5586 54.7349 17.6946 54.7349H17.8146C17.9505 54.7349 18.081 54.6809 18.1771 54.5847C18.2733 54.4886 18.3273 54.3582 18.3273 54.2222ZM19.6255 53.4149H19.5055C19.3695 53.4149 19.2391 53.3609 19.1429 53.2647C19.0468 53.1686 18.9927 53.0382 18.9927 52.9022V44.464C18.9942 44.329 19.0488 44.1999 19.1448 44.105C19.2408 44.01 19.3704 43.9567 19.5055 43.9567H19.6255C19.7605 43.9567 19.8901 44.01 19.9861 44.105C20.0821 44.1999 20.1368 44.329 20.1382 44.464V52.9131C20.1382 53.0491 20.0842 53.1795 19.988 53.2756C19.8919 53.3718 19.7614 53.4258 19.6255 53.4258V53.4149ZM21.4309 52.1167H21.3055C21.171 52.1167 21.0419 52.0633 20.9468 51.9681C20.8516 51.873 20.7982 51.744 20.7982 51.6094V45.7731C20.7975 45.706 20.8101 45.6395 20.8352 45.5773C20.8604 45.5151 20.8976 45.4585 20.9448 45.4109C20.992 45.3632 21.0482 45.3253 21.1101 45.2995C21.172 45.2737 21.2384 45.2603 21.3055 45.2604H21.4309C21.566 45.2618 21.695 45.3164 21.7899 45.4124C21.885 45.5084 21.9382 45.638 21.9382 45.7731V51.6094C21.9382 51.744 21.8847 51.873 21.7896 51.9681C21.6945 52.0633 21.5655 52.1167 21.4309 52.1167ZM23.2364 50.7804H23.1218C22.9868 50.7804 22.8572 50.7271 22.7612 50.6321C22.6652 50.5371 22.6105 50.4081 22.6091 50.2731V47.1313C22.6046 47.0612 22.6146 46.991 22.6383 46.925C22.6621 46.859 22.6992 46.7985 22.7472 46.7474C22.7953 46.6962 22.8533 46.6555 22.9178 46.6277C22.9822 46.5999 23.0516 46.5856 23.1218 46.5858H23.2418C23.3778 46.5858 23.5082 46.6398 23.6044 46.736C23.7006 46.8321 23.7546 46.9626 23.7546 47.0985V50.2622C23.7553 50.33 23.7426 50.3972 23.7171 50.4601C23.6917 50.5229 23.654 50.5801 23.6063 50.6283C23.5586 50.6764 23.5019 50.7147 23.4393 50.7408C23.3767 50.7669 23.3096 50.7804 23.2418 50.7804H23.2364ZM25.0473 49.6076H24.9273C24.7913 49.6076 24.6609 49.5536 24.5647 49.4575C24.4686 49.3613 24.4146 49.2309 24.4146 49.0949V48.2822C24.416 48.1471 24.4706 48.0181 24.5666 47.9232C24.6626 47.8281 24.7922 47.7749 24.9273 47.7749H25.0473C25.1823 47.7749 25.3119 47.8281 25.4079 47.9232C25.5039 48.0181 25.5586 48.1471 25.56 48.2822V49.0949C25.56 49.23 25.5068 49.3596 25.4118 49.4556C25.3168 49.5516 25.1878 49.6062 25.0527 49.6076H25.0473Z" fill="#D1D1D1"/>
<defs>
<linearGradient id="paint0_linear_43_1735" x1="-1.07003e-06" y1="-3.68497" x2="110.285" y2="5.81496" gradientUnits="userSpaceOnUse">
<stop offset="0" stop-color="white"/>
<stop offset="1" stop-color="white" stop-opacity="0"/>
</linearGradient>
</defs>
</svg>

<svg width="102" height="102" fill="none" xmlns="http://www.w3.org/2000/svg"><circle cx="51" cy="51" r="51" fill="#252532" fill-opacity=".8"/><circle cx="51" cy="51" r="50.5" stroke="url(#a)" stroke-opacity=".3"/><path d="M31.647 47.682c.197 0 .262.07.262.261v4.32h2.22c.191 0 .262.071.262.262v.382c0 .191-.071.262-.262.262h-2.924c-.19 0-.267-.071-.267-.262v-4.963c0-.192.077-.262.267-.262h.442ZM36.327 49.586c0-1.26.797-2.019 2.182-2.019 1.386 0 2.182.759 2.182 2.019v1.68c0 1.26-.802 2.018-2.182 2.018s-2.182-.758-2.182-2.018v-1.68Zm3.448 0c0-.71-.442-1.091-1.239-1.091-.796 0-1.232.387-1.232 1.09v1.691c0 .715.436 1.091 1.232 1.091.797 0 1.239-.392 1.239-1.09v-1.691ZM47.187 50.164c.213 0 .262.071.262.262v1.036a1.635 1.635 0 0 1-.578 1.287 2.378 2.378 0 0 1-1.636.513c-1.413 0-2.182-.758-2.182-2.018v-1.69c0-1.245.796-2.008 2.182-2.008 1.09 0 1.8.43 2.1 1.293a.233.233 0 0 1-.066.294.234.234 0 0 1-.098.044l-.425.147c-.186.066-.262.027-.328-.164a1.124 1.124 0 0 0-1.183-.709c-.802 0-1.239.388-1.239 1.091v1.735c0 .714.442 1.09 1.239 1.09.796 0 1.287-.365 1.287-.9v-.403h-1.184c-.196 0-.267-.076-.267-.267v-.371c0-.191.07-.262.267-.262h1.85ZM49.702 49.586c0-1.26.796-2.019 2.182-2.019 1.385 0 2.181.759 2.181 2.019v1.68c0 1.26-.801 2.018-2.181 2.018s-2.182-.758-2.182-2.018v-1.68Zm3.442 0c0-.71-.442-1.091-1.233-1.091-.791 0-1.238.387-1.238 1.09v1.691c0 .715.442 1.091 1.238 1.091s1.233-.392 1.233-1.09v-1.691ZM56.635 47.84c0-.12.038-.158.158-.158h.25c.12 0 .148.038.148.158v5.17c0 .12 0 .159-.147.159h-.251c-.12 0-.158-.038-.158-.158V47.84ZM62.16 47.682a1.713 1.713 0 0 1 0 3.425h-1.636v1.904c0 .12-.028.158-.142.158h-.256c-.115 0-.159-.038-.159-.158V47.84c0-.12.044-.158.159-.158h2.034Zm-.05 2.885a1.19 1.19 0 0 0 .456-2.288 1.19 1.19 0 0 0-.455-.09h-1.636v2.378h1.636ZM68.133 47.572a1.97 1.97 0 0 1 2.029 1.19c.043.087 0 .158-.088.201l-.24.11c-.098.038-.136.032-.196-.072a1.484 1.484 0 0 0-1.505-.894c-.922 0-1.424.365-1.424 1.02a.829.829 0 0 0 .693.84c.293.096.597.154.905.175.373.02.74.095 1.091.223a1.227 1.227 0 0 1 .851 1.293c0 1.02-.742 1.636-2.105 1.636a1.969 1.969 0 0 1-2.09-1.325.147.147 0 0 1 .093-.208l.24-.087a.148.148 0 0 1 .167.04.146.146 0 0 1 .03.053 1.56 1.56 0 0 0 1.56.982c1.03 0 1.538-.36 1.538-1.091a.811.811 0 0 0-.638-.835 3.823 3.823 0 0 0-.868-.152l-.589-.077a5.189 5.189 0 0 1-.545-.147 1.434 1.434 0 0 1-.486-.256 1.33 1.33 0 0 1-.436-1.042c.038-.955.753-1.577 2.013-1.577ZM73.19 51.303a1.515 1.515 0 0 0 2.552 1.014c.282-.266.45-.628.474-1.014V47.84c0-.12.038-.158.159-.158h.25c.12 0 .159.038.159.158v3.458c0 1.238-.731 1.985-2.079 1.985-1.347 0-2.078-.747-2.078-1.985V47.84c0-.12.038-.158.153-.158h.256c.115 0 .153.038.153.158v3.463ZM84.31 47.682c.12 0 .16.038.16.158v5.17c0 .12-.04.159-.16.159h-.228c-.115 0-.153-.038-.153-.158v-3.148c0-.457.031-.915.093-1.369h-.033c-.17.415-.37.818-.594 1.206l-1.173 2.067a.189.189 0 0 1-.18.12h-.153a.202.202 0 0 1-.185-.12l-1.19-2.089a8.806 8.806 0 0 1-.545-1.19h-.033c.056.459.085.92.088 1.38v3.143c0 .12-.038.158-.159.158h-.212c-.12 0-.158-.038-.158-.158V47.84c0-.12.038-.158.158-.158h.196a.217.217 0 0 1 .218.125l1.91 3.393 1.898-3.36c.06-.115.092-.131.212-.131l.224-.027ZM21.944 52.34v3.944a.57.57 0 1 1-1.14 0v-3.938c.158.116.349.18.545.185a.939.939 0 0 0 .595-.19Zm4.854-1.14a.545.545 0 0 0-.545.546v.687a.57.57 0 1 0 1.14 0v-.66a.544.544 0 0 0-.595-.573Zm-7.232 2.635a.982.982 0 0 1-.546-.186v3.955a.572.572 0 1 0 1.146 0v-3.927a.998.998 0 0 1-.6.158Zm5.454-3.818a.544.544 0 0 0-.573.545V53.6a.573.573 0 1 0 1.146 0v-3a.545.545 0 0 0-.6-.572l.027-.011Zm-1.81 1.167a.998.998 0 0 1-.574-.185v3.965a.573.573 0 1 0 1.146 0v-3.96a.965.965 0 0 1-.6.19l.027-.01Zm-4.883 3.038V43.144a.513.513 0 0 0-.512-.507h-.12a.513.513 0 0 0-.513.507v11.078a.512.512 0 0 0 .513.513h.12a.512.512 0 0 0 .512-.513Zm1.298-.807h-.12a.513.513 0 0 1-.512-.513v-8.438a.513.513 0 0 1 .513-.507h.12a.513.513 0 0 1 .512.507v8.45a.512.512 0 0 1-.513.512v-.011Zm1.806-1.298h-.126a.507.507 0 0 1-.507-.508v-5.836a.509.509 0 0 1 .508-.513h.125a.512.512 0 0 1 .507.513v5.836a.507.507 0 0 1-.507.508Zm1.805-1.337h-.114a.513.513 0 0 1-.513-.507v-3.142a.513.513 0 0 1 .513-.545h.12a.513.513 0 0 1 .513.513v3.163a.512.512 0 0 1-.513.518h-.006Zm1.811-1.172h-.12a.513.513 0 0 1-.512-.513v-.813a.512.512 0 0 1 .512-.507h.12a.512.512 0 0 1 .513.507v.813a.513.513 0 0 1-.507.513h-.006Z" fill="#D1D1D1"/><defs><linearGradient id="a" x1="0" y1="-3.685" x2="110.285" y2="5.815" gradientUnits="userSpaceOnUse"><stop offset="0" stop-color="#fff"/><stop offset="1" stop-color="#fff" stop-opacity="0"/></linearGradient></defs></svg>
